en/template-builder/_images/templates/audio.svg

<svg width="121" height="122" viewBox="0 0 121 122" fill="none" xmlns="http://www.w3.org/2000/svg">
<path d="M90.0037 91.041C84.5948 102.285 73.1887 110.041 60.0031 110.041C46.8189 110.041 35.414 102.29 30.0037 91.041" stroke="#0055D9" stroke-width="2" stroke-linecap="round"/>
<path d="M60.0037 110.041V120.041" stroke="#0055D9" stroke-width="2" stroke-linecap="round"/>
<path fill-rule="evenodd" clip-rule="evenodd" d="M35.0056 37.041L35.0056 75.041C35.0056 88.841 46.2056 100.041 60.0029 100.041H60.0042C73.8016 100.041 85.0015 88.841 85.0015 75.041V37.041C85.0015 23.241 73.8016 12.041 60.0042 12.041H60.0029C46.2056 12.041 35.0056 23.241 35.0056 37.041Z" fill="url(#paint0_linear_598_1613)"/>
<path fill-rule="evenodd" clip-rule="evenodd" d="M119.004 72.041H1.00366L13.8764 58.0947C15.9432 55.7059 18.831 53.9036 22.4582 58.0947C26.4287 62.9008 28.9761 61.5419 31.04 58.0947L35.6141 48.8258C37.9398 43.8909 40.7146 43.7621 43.9128 48.4395L47.8532 54.2611C49.694 57.1362 51.8066 57.3652 53.2713 54.3184L59.7662 40.0002C63.0859 32.5907 69.5223 31.618 73.9462 39.7712L83.7295 57.7943C86.1024 61.9854 88.8185 61.6421 91.3673 58.3093L95.9157 51.9582C98.6375 48.0533 101.286 47.5526 104.772 51.7866C110.416 58.4236 114.799 65.0464 119.004 72.041Z" fill="url(#paint1_linear_598_1613)"/>
<defs>
<linearGradient id="paint0_linear_598_1613" x1="72.9908" y1="99.6214" x2="72.9908" y2="12.0396" gradientUnits="userSpaceOnUse">
<stop stop-color="#A1BFFF" stop-opacity="0.17"/>
<stop offset="1" stop-color="#679BFF" stop-opacity="0.92"/>
</linearGradient>
<linearGradient id="paint1_linear_598_1613" x1="60.0036" y1="34.041" x2="60.0036" y2="145.041" gradientUnits="userSpaceOnUse">
<stop offset="0.02" stop-color="#0064FF"/>
<stop offset="0.06" stop-color="#005FFF" stop-opacity="0.86"/>
<stop offset="0.11" stop-color="#005BFF" stop-opacity="0.72"/>
<stop offset="0.17" stop-color="#0057FF" stop-opacity="0.59"/>
<stop offset="0.23" stop-color="#0053FF" stop-opacity="0.48"/>
<stop offset="0.3" stop-color="#0051FF" stop-opacity="0.4"/>
<stop offset="0.38" stop-color="#004FFF" stop-opacity="0.33"/>
<stop offset="0.48" stop-color="#004DFF" stop-opacity="0.28"/>
<stop offset="0.61" stop-color="#004CFF" stop-opacity="0.26"/>
<stop offset="1" stop-color="#004CFF" stop-opacity="0.25"/>
</linearGradient>
</defs>
</svg>

<svg xmlns="http://www.w3.org/2000/svg" width="121" height="122" fill="none"><path stroke="#0055D9" stroke-linecap="round" stroke-width="2" d="M90.004 91.041c-5.41 11.244-16.815 19-30 19-13.185 0-24.59-7.751-30-19M60.004 110.041v10"/><path fill="url(#a)" fill-rule="evenodd" d="M35.006 37.041v38c0 13.8 11.2 25 24.997 25h.001c13.798 0 24.997-11.2 24.997-25v-38c0-13.8-11.2-25-24.997-25h-.001c-13.797 0-24.997 11.2-24.997 25Z" clip-rule="evenodd"/><path fill="url(#b)" fill-rule="evenodd" d="M119.004 72.041h-118l12.872-13.946c2.067-2.39 4.955-4.191 8.582 0 3.97 4.806 6.518 3.447 8.582 0l4.574-9.27c2.326-4.934 5.1-5.063 8.299-.386l3.94 5.822c1.841 2.875 3.954 3.104 5.418.057L59.766 40c3.32-7.41 9.756-8.382 14.18-.229l9.784 18.023c2.372 4.191 5.088 3.848 7.637.515l4.549-6.35c2.722-3.906 5.37-4.406 8.856-.172 5.644 6.637 10.027 13.26 14.232 20.254Z" clip-rule="evenodd"/><defs><linearGradient id="a" x1="72.991" x2="72.991" y1="99.621" y2="12.04" gradientUnits="userSpaceOnUse"><stop stop-color="#A1BFFF" stop-opacity=".17"/><stop offset="1" stop-color="#679BFF" stop-opacity=".92"/></linearGradient><linearGradient id="b" x1="60.004" x2="60.004" y1="34.041" y2="145.041" gradientUnits="userSpaceOnUse"><stop offset=".02" stop-color="#0064FF"/><stop offset=".06" stop-color="#005FFF" stop-opacity=".86"/><stop offset=".11" stop-color="#005BFF" stop-opacity=".72"/><stop offset=".17" stop-color="#0057FF" stop-opacity=".59"/><stop offset=".23" stop-color="#0053FF" stop-opacity=".48"/><stop offset=".3" stop-color="#0051FF" stop-opacity=".4"/><stop offset=".38" stop-color="#004FFF" stop-opacity=".33"/><stop offset=".48" stop-color="#004DFF" stop-opacity=".28"/><stop offset=".61" stop-color="#004CFF" stop-opacity=".26"/><stop offset="1" stop-color="#004CFF" stop-opacity=".25"/></linearGradient></defs></svg>
